X:1
T:Kesh Jig
L:1/8
M:6/8
I:linebreak $
K:G
V:1 treble
V:1
 D |"G" G2 GAB |"D" A2 A ABd |"G" edd gdd |"D" edB dBA |$
 "G"G2 G GAB |"D" A2 A ABd |"G" edd gdB |1"D" AGF "G"G2 :|2 "D" AGF "G"G3 |:$
 "G"B2 B cBd |"C" ege "G"cBG | B2 B dBG |"Am" A2 A "D"AGA |$
 "G"B2 B dBd |"C" ege "G"dBd |"G" g2 g "D"aga |1"G" bgf g3 :|2"G"  bgf g2 |]
